X: 147
T: Chwalcie Pana z Jego świątobliwości,
C: Mikołaj Gomółka
%%abc-version 2.0
%%abcx-abcm2ps-target-version 5.9.1 (29 Sep 2008)
%%abc-creator hum2abc beta
%%abcx-conversion-date 2021/10/04 07:59:10
%%abc-edited-by Anna Matuszewska
%%abcx-initial-encoding-date 2020-02-25
%%humdrum-veritas 4144055260
%%humdrum-veritas-data 1483511534
%%linebreak <none>
%%barnumbers 0
L: 1/4
M: C|
N: Derived from pl-wn--sd-xvi-qu-273--150_gomolka-mikolaj--chwalcie-pana-z-jego-swiatobliwosci.krn
%%staves [1 2 3 4]
V: 1 clef=treble
V: 2
V: 3 clef=alto
V: 4
K: C
[V:1] d4d2d2 | 
[V:2] A4A2A2 | 
[V:3] F4F2F2 | 
[V:4] D,4D,2D,2 [|] 
[V:1] d2d2d2f2 | 
[V:2] B4B2AB | 
[V:3] G2G2G2F2 | 
[V:4] G,2>A,2B,CD2 [|] 
[V:1] e2e4d2 | 
[V:2] c2c4B2 | 
[V:3] G2G2G3F | 
[V:4] C2C,2G,4 [|] 
[V:1] e2d2d2d2 | 
[V:2] c2B2A2B2 | 
[V:3] EFG2D2G2 | 
[V:4] C,2G,2^F,2G,2 [|] 
[V:1] d2d2d2e4 | 
[V:2] A2B2B2c4 | 
[V:3] ^F2G2G2G4 | 
[V:4] D,2G,2G,2C,D, [|] 
[V:1] d2c4 | 
[V:2] B2A2A2 | 
[V:3] GFE2C2 | 
[V:4] E,F,G,2A,2A,4 [|] 
[V:1] B4A2A2 | 
[V:2] d4c2d2 | 
[V:3] DCDEF2F2 | 
[V:4] ^G,2A,2D2 [|] 
[V:1] A2A2Bcd4 | 
[V:2] e2dcBAB2 | 
[V:3] E2F2G3F | 
[V:4] ^C2D2G,4 [|] 
[V:1] c2d4 |]  
[V:2] A2>G2^F4 |]  
[V:3] EDE2D4 |]  
[V:4] A,4D,4 | 



